X: 2
T: Jesu, Joy of Man's Desiring (LH)
C: J. S. Bach
M: 3/4
L: 1/4
K: G
Q: 1/4=80
|G,,G,E, | B,,E,E,, | A,,B,,C, |
D,F,D, | G,E,C, | B,,E,D, | C,^C,D, |
G,,-(3:2:2G,,G,/ (3:2:2D,B,,/ | G,,4 |
